assets/images/_scenelayout/invert.cube
# Default Debugging LUT, should invert all colors
# Should be as noticeable as possible
# Active Theory, written by Richard Zhou

LUT_3D_SIZE 2
DOMAIN_MIN 0.0 0.0 0.0
DOMAIN_MAX 1.0 1.0 1.0

1 1 1
0.000000 1 1
1 1 1
0.000000 0.000000 1
1 1 1
0.000000 1 1
1 1 1
0.000000 0.000000 0.000000
